X:1
T:The Humours Of Ennistymon
R:jig
M:6/8
L:1/8
K:G
|:BcB GBd|cBc ABc|BcB GBd|cAG FGA|
|BcB GBd|cBc ABc|d^cd e=cA|1 AGF G2A:|2 AGF G2e|]
|:~f2f fed|cAG FGA|d2g gfg|afd d2e|
|~f2f fed|cAG FGA|BAB cAF|1 AGF G2e:|2 AGF G2f|]
|gdB gdB|ecA ecA|BcB GBd|cAG FGA|
|gdB gdB|ecA ecA|BcB GBd|cAF G2f|
|gdB gdB|ecA ecA|BcB GBd|cAG FGA|
|BcB GBd|cBc ABc|d^cd e=cA|AGF G2A|